netbox/static/netbox/icons/cc.svg

<?xml version="1.0" encoding="utf-8"?>
<!-- Generator: Adobe Illustrator 22.0.1, SVG Export Plug-In . SVG Version: 6.00 Build 0)  -->
<svg version="1.1" id="Layer_1" xmlns="http://www.w3.org/2000/svg" xmlns:xlink="http://www.w3.org/1999/xlink" x="0px" y="0px"
	 viewBox="0 0 56 56" style="enable-background:new 0 0 56 56;" xml:space="preserve">
<path d="M43.6,23.6l-3.6,1.9c-0.4-0.8-0.9-1.4-1.4-1.7c-0.6-0.3-1.1-0.5-1.6-0.5c-2.5,0-3.7,1.6-3.7,4.9c0,1.5,0.3,2.6,0.9,3.5
	c0.6,0.9,1.5,1.3,2.7,1.3c1.6,0,2.7-0.8,3.4-2.4l3.4,1.7c-0.8,1.3-1.8,2.4-3,3.2c-1.3,0.8-2.7,1.2-4.2,1.2c-2.5,0-4.5-0.8-6-2.3
	c-1.5-1.5-2.2-3.6-2.2-6.3c0-2.6,0.8-4.7,2.3-6.2c1.5-1.5,3.4-2.3,5.8-2.3C39.7,19.6,42.1,20.9,43.6,23.6 M27.7,23.6L24,25.5
	c-0.4-0.8-0.9-1.4-1.4-1.7c-0.6-0.3-1.1-0.5-1.6-0.5c-2.5,0-3.7,1.6-3.7,4.9c0,1.5,0.3,2.6,0.9,3.5c0.6,0.9,1.5,1.3,2.7,1.3
	c1.6,0,2.7-0.8,3.4-2.4l3.4,1.7c-0.7,1.3-1.7,2.4-3,3.2c-1.3,0.8-2.7,1.2-4.2,1.2c-2.5,0-4.4-0.8-5.9-2.3c-1.5-1.5-2.3-3.6-2.3-6.3
	c0-2.6,0.8-4.7,2.3-6.2c1.5-1.5,3.4-2.3,5.8-2.3C23.8,19.6,26.2,20.9,27.7,23.6z M28.1,5.6c-6.3,0-11.6,2.2-15.8,6.6
	c-2.2,2.2-3.8,4.7-5,7.4c-1.2,2.7-1.7,5.6-1.7,8.6c0,2.9,0.6,5.8,1.7,8.5c1.2,2.7,2.8,5.2,5,7.3c2.2,2.1,4.6,3.8,7.3,4.9
	c2.7,1.1,5.6,1.7,8.5,1.7c2.9,0,5.8-0.6,8.6-1.7c2.8-1.1,5.3-2.8,7.5-5c4.3-4.2,6.4-9.4,6.4-15.8c0-3-0.6-5.9-1.7-8.6
	s-2.7-5.1-4.9-7.3C39.6,7.8,34.3,5.6,28.1,5.6z M28,0.6c7.7,0,14.2,2.7,19.6,8c2.6,2.6,4.5,5.5,5.9,8.9c1.3,3.3,2,6.8,2,10.6
	c0,3.8-0.7,7.3-2,10.6c-1.3,3.3-3.3,6.2-5.9,8.7c-2.7,2.6-5.7,4.7-9.1,6.1c-3.4,1.4-6.9,2.1-10.5,2.1s-7.1-0.7-10.4-2.1
	c-3.3-1.4-6.3-3.4-8.9-6c-2.6-2.6-4.6-5.6-6-8.9c-1.4-3.3-2.1-6.8-2.1-10.5c0-3.6,0.7-7.1,2.1-10.5c1.4-3.4,3.4-6.4,6.1-9
	C13.9,3.3,20.3,0.6,28,0.6z"/>
</svg>

<?xml version="1.0" encoding="UTF-8"?>
<svg width="56px" height="56px" viewBox="0 0 56 56" version="1.1" xmlns="http://www.w3.org/2000/svg" xmlns:xlink="http://www.w3.org/1999/xlink">
    <!-- Generator: Sketch 59 (86127) - https://sketch.com -->
    <title>Shape</title>
    <desc>Created with Sketch.</desc>
    <g id="Page-1" stroke="none" stroke-width="1" fill="none" fill-rule="evenodd">
        <g id="by" transform="translate(-79.000000, 0.000000)" fill="#000000" fill-rule="nonzero">
            <g id="cc" transform="translate(79.000000, 0.000000)">
                <path d="M43.6,23.6 L40,25.5 C39.6,24.7 39.1,24.1 38.6,23.8 C38,23.5 37.5,23.3 37,23.3 C34.5,23.3 33.3,24.9 33.3,28.2 C33.3,29.7 33.6,30.8 34.2,31.7 C34.8,32.6 35.7,33 36.9,33 C38.5,33 39.6,32.2 40.3,30.6 L43.7,32.3 C42.9,33.6 41.9,34.7 40.7,35.5 C39.4,36.3 38,36.7 36.5,36.7 C34,36.7 32,35.9 30.5,34.4 C29,32.9 28.3,30.8 28.3,28.1 C28.3,25.5 29.1,23.4 30.6,21.9 C32.1,20.4 34,19.6 36.4,19.6 C39.7,19.6 42.1,20.9 43.6,23.6 M27.7,23.6 L24,25.5 C23.6,24.7 23.1,24.1 22.6,23.8 C22,23.5 21.5,23.3 21,23.3 C18.5,23.3 17.3,24.9 17.3,28.2 C17.3,29.7 17.6,30.8 18.2,31.7 C18.8,32.6 19.7,33 20.9,33 C22.5,33 23.6,32.2 24.3,30.6 L27.7,32.3 C27,33.6 26,34.7 24.7,35.5 C23.4,36.3 22,36.7 20.5,36.7 C18,36.7 16.1,35.9 14.6,34.4 C13.1,32.9 12.3,30.8 12.3,28.1 C12.3,25.5 13.1,23.4 14.6,21.9 C16.1,20.4 18,19.6 20.4,19.6 C23.8,19.6 26.2,20.9 27.7,23.6 Z M28.1,5.6 C21.8,5.6 16.5,7.8 12.3,12.2 C10.1,14.4 8.5,16.9 7.3,19.6 C6.1,22.3 5.6,25.2 5.6,28.2 C5.6,31.1 6.2,34 7.3,36.7 C8.5,39.4 10.1,41.9 12.3,44 C14.5,46.1 16.9,47.8 19.6,48.9 C22.3,50 25.2,50.6 28.1,50.6 C31,50.6 33.9,50 36.7,48.9 C39.5,47.8 42,46.1 44.2,43.9 C48.5,39.7 50.6,34.5 50.6,28.1 C50.6,25.1 50,22.2 48.9,19.5 C47.8,16.8 46.2,14.4 44,12.2 C39.6,7.8 34.3,5.6 28.1,5.6 Z M28,0.6 C35.7,0.6 42.2,3.3 47.6,8.6 C50.2,11.2 52.1,14.1 53.5,17.5 C54.8,20.8 55.5,24.3 55.5,28.1 C55.5,31.9 54.8,35.4 53.5,38.7 C52.2,42 50.2,44.9 47.6,47.4 C44.9,50 41.9,52.1 38.5,53.5 C35.1,54.9 31.6,55.6 28,55.6 C24.4,55.6 20.9,54.9 17.6,53.5 C14.3,52.1 11.3,50.1 8.7,47.5 C6.1,44.9 4.1,41.9 2.7,38.6 C1.3,35.3 0.6,31.8 0.6,28.1 C0.6,24.5 1.3,21 2.7,17.6 C4.1,14.2 6.1,11.2 8.8,8.6 C13.9,3.3 20.3,0.6 28,0.6 Z" id="Shape"></path>
            </g>
        </g>
    </g>
</svg>
